packages/gestalt-icons-android/vr-theme/ic_vr_service-outlook_gestalt.svg

<svg width="24" height="24" viewBox="0 0 24 24" fill="none" xmlns="http://www.w3.org/2000/svg">
<path fill-rule="evenodd" clip-rule="evenodd" d="M7.583 9.59C7.11 9.59 6.734 9.81 6.456 10.249C6.178 10.687 6.037 11.268 6.037 11.991C6.037 12.725 6.178 13.305 6.456 13.731C6.734 14.159 7.099 14.37 7.55 14.37C8.015 14.37 8.384 14.162 8.657 13.748C8.929 13.333 9.066 12.756 9.066 12.02C9.066 11.252 8.934 10.656 8.67 10.229C8.405 9.802 8.042 9.59 7.583 9.59ZM23 8.289C23 8.289 16.353 12.659 16.588 12.517C16.588 12.517 16.351 12.659 16.156 12.517L14.768 11.575V17.422H21.815C22.442 17.422 23 17.06 23 16.199V8.289ZM7.621 8.152C8.476 8.152 9.167 8.496 9.694 9.188C10.222 9.881 10.486 10.795 10.486 11.928C10.487 13.092 10.213 14.03 9.666 14.743C9.119 15.455 8.405 15.812 7.524 15.812C6.667 15.812 5.969 15.467 5.428 14.777C4.889 14.086 4.616 13.187 4.616 12.078C4.616 10.907 4.892 9.96 5.441 9.237C5.99 8.514 6.717 8.152 7.621 8.152ZM14.768 5.664V9.966L16.288 10.914C16.328 10.926 16.414 10.927 16.454 10.914L22.998 6.551C22.998 6.034 22.512 5.664 22.238 5.664H14.768ZM13.95 1L1 3.478V20.315L13.95 23V1Z" fill="black"/>
</svg>

<svg xmlns="http://www.w3.org/2000/svg" width="24" height="24"><path d="M7.58 9.59q-.71 0-1.12.66a3 3 0 0 0-.42 1.74q0 1.1.42 1.74.41.64 1.09.64.7 0 1.1-.62.42-.63.42-1.73a3.4 3.4 0 0 0-.4-1.8 1.2 1.2 0 0 0-1.09-.63M23 8.29s-6.65 4.37-6.41 4.23c0 0-.24.14-.43 0l-1.4-.94v5.84h7.06c.62 0 1.18-.36 1.18-1.22zM7.62 8.15q1.29 0 2.07 1.04.8 1.04.8 2.74a4.5 4.5 0 0 1-.82 2.81 2.6 2.6 0 0 1-2.15 1.07q-1.27 0-2.1-1.03a4.3 4.3 0 0 1-.8-2.7q0-1.76.82-2.84a2.6 2.6 0 0 1 2.18-1.09m7.15-2.49v4.3l1.52.95c.04.02.12.02.16 0L23 6.55c0-.52-.49-.89-.76-.89zM13.95 1 1 3.48v16.84L13.95 23z"/></svg>
